packages/ui-solid/icons/discussion_24.svg

<svg width="24" height="24" viewBox="0 0 24 24" fill="none" xmlns="http://www.w3.org/2000/svg">
<path fill-rule="evenodd" clip-rule="evenodd" d="M11.5725 4.28212C6.99538 4.28212 3.472 7.55549 3.472 11.3759C3.472 13.0846 4.16298 14.6643 5.33948 15.9044C5.63595 16.2169 5.85666 16.6676 5.82912 17.1879C5.79101 17.9076 5.64732 18.9818 5.27456 19.98C6.51908 19.6327 7.68455 19.0157 8.38972 18.5567C8.79362 18.2938 9.28643 18.1966 9.76335 18.292C10.3441 18.4081 10.9496 18.4697 11.5725 18.4697C16.1496 18.4697 19.673 15.1963 19.673 11.3759C19.673 7.55549 16.1496 4.28212 11.5725 4.28212ZM1.672 11.3759C1.672 6.36661 6.20792 2.48212 11.5725 2.48212C16.9371 2.48212 21.473 6.36661 21.473 11.3759C21.473 16.3852 16.9371 20.2697 11.5725 20.2697C10.8309 20.2697 10.1072 20.1964 9.41037 20.057C9.39919 20.0548 9.38492 20.0567 9.37163 20.0653C8.3986 20.6986 6.61405 21.6326 4.7371 21.9418C4.06841 22.052 3.5819 21.6455 3.36789 21.2422C3.16191 20.854 3.11406 20.3285 3.36076 19.8627C3.79301 19.0467 3.98264 17.9237 4.02907 17.1384C2.5693 15.5976 1.672 13.5869 1.672 11.3759ZM6.88281 9.98015C6.88281 9.4831 7.28575 9.08015 7.78281 9.08015H15.8359C16.3329 9.08015 16.7359 9.4831 16.7359 9.98015C16.7359 10.4772 16.3329 10.8802 15.8359 10.8802H7.78281C7.28575 10.8802 6.88281 10.4772 6.88281 9.98015ZM6.88281 13.5329C6.88281 13.0359 7.28575 12.6329 7.78281 12.6329H13.941C14.4381 12.6329 14.841 13.0359 14.841 13.5329C14.841 14.03 14.4381 14.4329 13.941 14.4329H7.78281C7.28575 14.4329 6.88281 14.03 6.88281 13.5329Z" fill="#007AFF"/>
</svg>

<svg xmlns="http://www.w3.org/2000/svg" width="24" height="24" fill="none"><path fill="currentColor" fill-rule="evenodd" d="M11.573 4.282c-4.578 0-8.101 3.273-8.101 7.094 0 1.709.691 3.288 1.867 4.528.297.313.518.764.49 1.284-.038.72-.182 1.794-.554 2.792 1.244-.347 2.41-.964 3.115-1.423.404-.263.896-.36 1.373-.265a9.2 9.2 0 0 0 1.81.178c4.577 0 8.1-3.274 8.1-7.094s-3.523-7.094-8.1-7.094m-9.901 7.094c0-5.01 4.536-8.894 9.9-8.894s9.901 3.885 9.901 8.894-4.536 8.894-9.9 8.894a11 11 0 0 1-2.163-.213.05.05 0 0 0-.038.008c-.973.634-2.758 1.568-4.635 1.877-.669.11-1.155-.297-1.37-.7a1.48 1.48 0 0 1-.006-1.38c.432-.815.622-1.938.668-2.724-1.46-1.54-2.357-3.551-2.357-5.762m5.21-1.396a.9.9 0 0 1 .9-.9h8.054a.9.9 0 0 1 0 1.8H7.783a.9.9 0 0 1-.9-.9m0 3.553a.9.9 0 0 1 .9-.9h6.159a.9.9 0 0 1 0 1.8H7.783a.9.9 0 0 1-.9-.9" clip-rule="evenodd"/></svg>
